assets/icons/moduleIcons/admin.svg

<svg width="50" height="50" viewBox="0 0 50 50" fill="none" xmlns="http://www.w3.org/2000/svg">
<path d="M23.5901 25C23.5874 26.5013 22.9906 27.9404 21.93 29.0029C20.8694 30.0653 19.4313 30.6647 17.9301 30.67C16.4271 30.6674 14.9865 30.0692 13.9237 29.0064C12.8609 27.9436 12.2627 26.503 12.2601 25C12.2627 23.4971 12.8609 22.0564 13.9237 20.9936C14.9865 19.9309 16.4271 19.3327 17.9301 19.33C19.4313 19.3353 20.8694 19.9347 21.93 20.9972C22.9906 22.0596 23.5874 23.4988 23.5901 25V25ZM40.5901 13.67C40.5874 14.0448 40.5089 14.4152 40.3594 14.7589C40.2099 15.1026 39.9924 15.4125 39.7201 15.67C39.4668 15.945 39.1567 16.1617 38.8114 16.305C38.466 16.4483 38.0937 16.5149 37.7201 16.5C36.9733 16.482 36.2602 16.186 35.7201 15.67C35.4395 15.4211 35.219 15.1118 35.0753 14.7654C34.9315 14.419 34.8682 14.0444 34.8901 13.67C34.8978 12.9262 35.1961 12.215 35.7211 11.6881C36.2461 11.1612 36.9563 10.8604 37.7001 10.85C38.0725 10.8505 38.441 10.925 38.7844 11.0692C39.1277 11.2135 39.439 11.4245 39.7001 11.69C39.991 11.9336 40.2224 12.2403 40.3766 12.587C40.5309 12.9336 40.6039 13.3109 40.5901 13.69V13.67ZM40.5901 36.33C40.5966 36.7062 40.5222 37.0794 40.3722 37.4245C40.2221 37.7695 39.9997 38.0783 39.7201 38.33C39.463 38.6024 39.153 38.8194 38.8091 38.9677C38.4652 39.1161 38.0946 39.1926 37.7201 39.1926C37.3455 39.1926 36.9749 39.1161 36.631 38.9677C36.2871 38.8194 35.9771 38.6024 35.7201 38.33C35.4401 38.0807 35.22 37.7713 35.0763 37.425C34.9326 37.0787 34.8689 36.7044 34.8901 36.33C34.8853 35.9578 34.9564 35.5884 35.0991 35.2445C35.2418 34.9007 35.4531 34.5895 35.7201 34.33C35.9785 34.0616 36.2895 33.8494 36.6336 33.7066C36.9777 33.5638 37.3476 33.4935 37.7201 33.5C38.47 33.5028 39.1886 33.801 39.7201 34.33C40.0061 34.5809 40.2326 34.8924 40.3831 35.2418C40.5335 35.5913 40.6043 35.9698 40.5901 36.35V36.33ZM32.0701 27V23C32.0705 22.839 32.0138 22.6831 31.9101 22.56C31.8366 22.4496 31.727 22.3683 31.6001 22.33L28.1501 21.77C27.9593 21.1982 27.7218 20.643 27.4401 20.11C27.9401 19.39 28.6001 18.55 29.4401 17.57C29.5335 17.4412 29.589 17.2888 29.6001 17.13C29.6058 16.9711 29.5483 16.8165 29.4401 16.7C28.887 15.9865 28.2784 15.3178 27.6201 14.7C26.7201 13.83 26.1501 13.39 25.9101 13.39C25.7393 13.3851 25.5724 13.4419 25.4401 13.55L22.9001 15.55C22.3612 15.2618 21.7907 15.0369 21.2001 14.88C21.1093 13.7191 20.9355 12.5661 20.6801 11.43C20.6491 11.2775 20.5645 11.1411 20.4416 11.0457C20.3186 10.9503 20.1655 10.9021 20.0101 10.91H15.8701C15.7097 10.9128 15.5548 10.9692 15.4301 11.07C15.3685 11.1171 15.3185 11.1776 15.2839 11.2469C15.2492 11.3162 15.2308 11.3925 15.2301 11.47L14.7201 14.84C14.1423 15.0237 13.5832 15.2614 13.0501 15.55L10.4401 13.55C10.3819 13.4942 10.3127 13.4512 10.2369 13.4237C10.1612 13.3961 10.0805 13.3846 10.0001 13.39C9.83016 13.3907 9.66513 13.4469 9.53007 13.55C7.41007 15.55 6.36007 16.72 6.36007 17.11C6.36278 17.2566 6.41573 17.3978 6.51007 17.51C6.65007 17.72 6.95007 18.12 7.43007 18.7C7.91007 19.28 8.24007 19.7 8.43007 20.05C8.10606 20.6298 7.83818 21.2393 7.63007 21.87L4.27007 22.38C4.13316 22.4102 4.00804 22.4797 3.91007 22.58C3.85429 22.6382 3.81125 22.7074 3.7837 22.7832C3.75615 22.8589 3.7447 22.9396 3.75007 23.02V27.14C3.75557 27.2878 3.81211 27.4292 3.91007 27.54C3.9517 27.6004 4.005 27.6519 4.06683 27.6914C4.12865 27.7309 4.19776 27.7576 4.27007 27.77L7.67007 28.33C7.86007 28.83 8.10007 29.39 8.39007 29.99C7.88007 30.71 7.22007 31.55 6.39007 32.53C6.29236 32.6565 6.23644 32.8103 6.23007 32.97C6.2251 33.1408 6.28191 33.3077 6.39007 33.44C6.94932 34.1296 7.55756 34.7779 8.21007 35.38C9.11007 36.25 9.69007 36.69 9.95007 36.69C10.1227 36.6873 10.2903 36.6314 10.4301 36.53L12.9601 34.53C13.5099 34.8125 14.0818 35.0499 14.6701 35.24C14.7614 36.3871 14.9318 37.5264 15.1801 38.65C15.2001 38.8021 15.2776 38.9407 15.3966 39.0374C15.5156 39.1341 15.6671 39.1816 15.8201 39.17H20.0001C20.1575 39.1673 20.3092 39.1108 20.4301 39.01C20.5583 38.9123 20.6442 38.7692 20.6701 38.61L21.1901 35.24C21.7577 35.0539 22.3123 34.83 22.8501 34.57L25.4301 36.51C25.5624 36.6182 25.7293 36.675 25.9001 36.67C26.0614 36.6722 26.2179 36.6153 26.3401 36.51C28.4801 34.51 29.5501 33.3234 29.5501 32.95C29.543 32.8025 29.4866 32.6617 29.3901 32.55C29.2001 32.31 28.8901 31.91 28.4401 31.36C28.0761 30.9335 27.742 30.4825 27.4401 30.01C27.7302 29.4207 27.9807 28.8126 28.1901 28.19L31.5601 27.71C31.6989 27.6741 31.822 27.5932 31.9101 27.48C32.0022 27.3505 32.0574 27.1984 32.0701 27.04V27ZM46.2201 15.23V12.14C46.2201 11.9 45.1201 11.68 42.9301 11.47C42.7656 11.0635 42.5541 10.6775 42.3001 10.32C42.8017 9.35619 43.1749 8.3308 43.4101 7.27002C43.4081 7.23936 43.4 7.2094 43.3863 7.18192C43.3725 7.15444 43.3534 7.12999 43.3301 7.11002C41.5301 6.05002 40.6201 5.52002 40.5901 5.52002C40.5601 5.52002 40.1201 5.88002 39.5901 6.59002C39.0601 7.30002 38.6501 7.80002 38.4401 8.06002C37.995 8.00667 37.5451 8.00667 37.1001 8.06002C36.7421 7.55066 36.3583 7.06002 35.9501 6.59002C35.6508 6.20301 35.316 5.84479 34.9501 5.52002C34.9501 5.52002 34.0101 6.05002 32.2101 7.11002C32.1301 7.11002 32.0901 7.21002 32.0901 7.27002C32.3381 8.33269 32.7247 9.35814 33.2401 10.32C32.9807 10.6812 32.7564 11.0663 32.5701 11.47C30.3801 11.68 29.2801 11.9 29.2801 12.14V15.23C29.2801 15.47 30.3801 15.71 32.5701 15.95C32.7453 16.3563 32.9704 16.7392 33.2401 17.09C32.7239 18.055 32.3372 19.0839 32.0901 20.15C32.0901 20.2034 32.1301 20.2534 32.2101 20.3L32.9701 20.74C33.4101 21 33.8501 21.26 34.2701 21.49C34.4892 21.6238 34.7163 21.744 34.9501 21.85C35.0501 21.85 35.3801 21.51 35.9501 20.85C36.5201 20.19 36.8801 19.66 37.1001 19.34C37.4101 19.34 37.6401 19.34 37.7701 19.34C37.9001 19.34 38.1301 19.34 38.4401 19.34C39.0376 20.2264 39.7064 21.0625 40.4401 21.84H40.6001C40.6601 21.84 41.6001 21.32 43.3401 20.29C43.3627 20.2716 43.3814 20.2488 43.3951 20.2231C43.4089 20.1973 43.4173 20.1691 43.4201 20.14C43.1857 19.0758 42.8125 18.047 42.3101 17.08C42.549 16.7395 42.7565 16.378 42.9301 16C45.1201 15.76 46.2201 15.52 46.2201 15.28V15.23ZM46.2201 37.9V34.81C46.2201 34.57 45.1201 34.33 42.9301 34.09C42.7634 33.6845 42.5521 33.2988 42.3001 32.94C42.7992 31.9926 43.1723 30.9841 43.4101 29.94C43.4074 29.911 43.3989 29.8827 43.3851 29.857C43.3714 29.8312 43.3527 29.8085 43.3301 29.79C41.5301 28.79 40.6201 28.24 40.5901 28.24C40.5601 28.24 40.1201 28.58 39.5901 29.24C39.0601 29.9 38.6501 30.43 38.4401 30.75C37.995 30.6967 37.5451 30.6967 37.1001 30.75C36.753 30.22 36.3687 29.7154 35.9501 29.24C35.3701 28.55 35.0401 28.24 34.9501 28.24C34.8601 28.24 34.0101 28.75 32.2101 29.79C32.1301 29.8367 32.0901 29.8867 32.0901 29.94C32.3406 30.986 32.7272 31.9946 33.2401 32.94C32.983 33.3027 32.7587 33.6875 32.5701 34.09C30.3801 34.33 29.2801 34.57 29.2801 34.81V37.9C29.2801 38.14 30.3801 38.36 32.5701 38.57C32.7453 38.9794 32.9703 39.3657 33.2401 39.72C32.7247 40.6819 32.3381 41.7073 32.0901 42.77C32.0901 42.83 32.0901 42.88 32.2101 42.93L32.9701 43.37L34.2701 44.12C34.4892 44.2538 34.7163 44.374 34.9501 44.48C35.0501 44.48 35.3801 44.13 35.9501 43.48C36.5201 42.83 36.8801 42.3 37.1001 42.01C37.4101 42.01 37.6401 42.01 37.7701 42.01C37.9001 42.01 38.1301 42.01 38.4401 42.01C39.0443 42.8789 39.7128 43.7012 40.4401 44.47H40.6001C40.6601 44.47 41.6001 43.95 43.3401 42.92C43.3634 42.9 43.3825 42.8756 43.3963 42.8481C43.41 42.8206 43.4181 42.7907 43.4201 42.76C43.1849 41.6992 42.8117 40.6738 42.3101 39.71C42.5556 39.3472 42.7665 38.9622 42.9401 38.56C45.1201 38.36 46.2201 38.14 46.2201 37.9V37.9Z" fill="#000"/>
</svg>

<svg xmlns="http://www.w3.org/2000/svg" viewBox="0 0 50 50"><g id="admin"><path id="path1142" fill="#000" d="M23.59,25a5.68,5.68,0,0,1-5.66,5.67A5.68,5.68,0,0,1,12.26,25a5.68,5.68,0,0,1,5.67-5.67A5.68,5.68,0,0,1,23.59,25Zm17-11.33a2.78,2.78,0,0,1-.87,2,2.58,2.58,0,0,1-2,.83,3,3,0,0,1-2-.83,2.48,2.48,0,0,1-.83-2,2.85,2.85,0,0,1,2.81-2.82,2.81,2.81,0,0,1,2,.84A2.49,2.49,0,0,1,40.59,13.69Zm0,22.66a2.63,2.63,0,0,1-.87,2,2.75,2.75,0,0,1-4,0,2.49,2.49,0,0,1-.83-2,2.74,2.74,0,0,1,.83-2,2.71,2.71,0,0,1,2-.83,2.85,2.85,0,0,1,2,.83A2.56,2.56,0,0,1,40.59,36.35ZM32.07,27V23a.68.68,0,0,0-.16-.44.57.57,0,0,0-.31-.23l-3.45-.56a11,11,0,0,0-.71-1.66c.5-.72,1.16-1.56,2-2.54a.85.85,0,0,0,.16-.44.6.6,0,0,0-.16-.43,17.16,17.16,0,0,0-1.82-2c-.9-.87-1.47-1.31-1.71-1.31a.71.71,0,0,0-.47.16l-2.54,2a7.91,7.91,0,0,0-1.7-.67,24.39,24.39,0,0,0-.52-3.45.65.65,0,0,0-.67-.52H15.87a.72.72,0,0,0-.44.16.51.51,0,0,0-.2.4l-.51,3.37a9.65,9.65,0,0,0-1.67.71l-2.61-2a.58.58,0,0,0-.44-.16.78.78,0,0,0-.47.16c-2.12,2-3.17,3.17-3.17,3.56a.64.64,0,0,0,.15.4c.14.21.44.61.92,1.19s.81,1,1,1.35a10.43,10.43,0,0,0-.8,1.82l-3.36.51a.72.72,0,0,0-.36.2.58.58,0,0,0-.16.44v4.12a.64.64,0,0,0,.16.4.55.55,0,0,0,.36.23l3.4.56c.19.5.43,1.06.72,1.66-.51.72-1.17,1.56-2,2.54a.77.77,0,0,0-.16.44.71.71,0,0,0,.16.47,18.47,18.47,0,0,0,1.82,1.94c.9.87,1.48,1.31,1.74,1.31a.84.84,0,0,0,.48-.16l2.53-2a11.44,11.44,0,0,0,1.71.71,25,25,0,0,0,.51,3.41.6.6,0,0,0,.64.52H20a.69.69,0,0,0,.43-.16.63.63,0,0,0,.24-.4l.52-3.37a13.42,13.42,0,0,0,1.66-.67l2.58,1.94a.71.71,0,0,0,.47.16.66.66,0,0,0,.44-.16q3.21-3,3.21-3.56a.66.66,0,0,0-.16-.4c-.19-.24-.5-.64-.95-1.19a12.2,12.2,0,0,1-1-1.35,14.81,14.81,0,0,0,.75-1.82l3.37-.48a.65.65,0,0,0,.35-.23.88.88,0,0,0,.16-.44ZM46.22,15.23V12.14c0-.24-1.1-.46-3.29-.67a5.63,5.63,0,0,0-.63-1.15,12.44,12.44,0,0,0,1.11-3.05.23.23,0,0,0-.08-.16c-1.8-1.06-2.71-1.59-2.74-1.59s-.47.36-1,1.07-.94,1.21-1.15,1.47a5.63,5.63,0,0,0-1.34,0,18.19,18.19,0,0,0-1.15-1.47,7.86,7.86,0,0,0-1-1.07s-.94.53-2.74,1.59c-.08,0-.12.1-.12.16a12.45,12.45,0,0,0,1.15,3.05,7,7,0,0,0-.67,1.15c-2.19.21-3.29.43-3.29.67v3.09c0,.24,1.1.48,3.29.72a5.34,5.34,0,0,0,.67,1.14,12.45,12.45,0,0,0-1.15,3.06q0,.08.12.15l.76.44c.44.26.88.52,1.3.75a6.28,6.28,0,0,0,.68.36c.1,0,.43-.34,1-1s.93-1.19,1.15-1.51c.31,0,.54,0,.67,0s.36,0,.67,0a19.63,19.63,0,0,0,2,2.5l.16,0c.06,0,1-.52,2.74-1.55a.22.22,0,0,0,.08-.15,12.44,12.44,0,0,0-1.11-3.06A6.87,6.87,0,0,0,42.93,16c2.19-.24,3.29-.48,3.29-.72Zm0,22.67V34.81c0-.24-1.1-.48-3.29-.72a5.91,5.91,0,0,0-.63-1.15,12.29,12.29,0,0,0,1.11-3,.22.22,0,0,0-.08-.15c-1.8-1-2.71-1.55-2.74-1.55s-.47.34-1,1-.94,1.19-1.15,1.51a5.63,5.63,0,0,0-1.34,0,13.35,13.35,0,0,0-1.15-1.51c-.58-.69-.91-1-1-1s-.94.51-2.74,1.55q-.12.07-.12.15a12.3,12.3,0,0,0,1.15,3,7.47,7.47,0,0,0-.67,1.15c-2.19.24-3.29.48-3.29.72V37.9c0,.24,1.1.46,3.29.67a5.42,5.42,0,0,0,.67,1.15,12.45,12.45,0,0,0-1.15,3.05c0,.06,0,.11.12.16l.76.44,1.3.75a6.28,6.28,0,0,0,.68.36c.1,0,.43-.35,1-1s.93-1.18,1.15-1.47c.31,0,.54,0,.67,0s.36,0,.67,0a21.16,21.16,0,0,0,2,2.46l.16,0c.06,0,1-.52,2.74-1.55a.23.23,0,0,0,.08-.16,12.44,12.44,0,0,0-1.11-3.05,7,7,0,0,0,.63-1.15C45.12,38.36,46.22,38.14,46.22,37.9Z"/></g></svg>
